src/pos-icons/home-group.svg

<svg height="24" viewBox="0 0 24 24" width="24" xmlns="http://www.w3.org/2000/svg"><path d="m17 16h-2v6h-3v-5h-4v5h-3v-6h-2l7-6zm-11-14 4 4h-1v3h-2v-3h-2v3h-2v-3h-1zm12 1 5 5h-1v4h-3v-3h-2v3h-1.66l-1.34-1.13v-2.87h-1z"/></svg>

<?xml version="1.0" encoding="UTF-8"?><!DOCTYPE svg PUBLIC "-//W3C//DTD SVG 1.1//EN" "http://www.w3.org/Graphics/SVG/1.1/DTD/svg11.dtd"><svg xmlns="http://www.w3.org/2000/svg" xmlns:xlink="http://www.w3.org/1999/xlink" version="1.1" id="mdi-home-group" width="24" height="24" viewBox="0 0 24 24"><path d="M17,16H15V22H12V17H8V22H5V16H3L10,10L17,16M6,2L10,6H9V9H7V6H5V9H3V6H2L6,2M18,3L23,8H22V12H19V9H17V12H15.34L14,10.87V8H13L18,3Z" /></svg>
